; generated by SuperSlicer 2.4 on 2022-12-13 at 22:56:58 UTC


;
;

;
;
; 

; external perimeters extrusion width = 0.42mm
; perimeters extrusion width = 0.46mm
; infill extrusion width = 0.44mm
; solid infill extrusion width = 0.46mm
; top infill extrusion width = 0.44mm
; first layer extrusion width = 0.60mm

; object:{"name":"cube","id":"cube id:0 copy 0","object_center":[10.750000,10.500000,0.000000],"boundingbox_center":[10.750000,10.500000,5.000000],"boundingbox_size":[10.000000,10.000000,9.999999]}
; plater:{"center":[10.750000,10.500000,0.000000],"boundingbox_center":[10.750000,10.500000,5.000000],"boundingbox_size":[10.000000,10.000000,9.999999]}

M73 P0 R15
;TYPE:Custom
G28 ; home all axes
G1 Z5 F5000 ; lift nozzle
M107
G21 ; set units to millimeters
G90 ; use absolute coordinates
M82 ; use absolute distances for extrusion
G92 E0
; Filament gcode
;_TOOLCHANGE 0
M104 S215 ; set temperature
M109 S215 ; set temperature and wait for it to be reached
M107
;LAYER_CHANGE
;Z:0.3
;HEIGHT:0.3
G1 Z0.3 F7800
M73 P2 R15
G1 X0.718 Y0.817
;TYPE:Skirt
;WIDTH:0.44
G1 F1341
G1 X0.354 Y1.137 E0.02271
G1 X-0.792 Y3.186 E0.1327
G1 X-1.189 Y5.5 E0.24268
G1 X-1.189 Y15.5 E0.71117
G1 X-1.035 Y16.953 E0.77963
G1 X-0.162 Y19.133 E0.88962
G1 X1.387 Y20.896 E0.9996
G1 X3.436 Y22.042 E1.10959
G1 X5.75 Y22.439 E1.21957
G1 X15.75 Y22.439 E1.68806
G1 X17.203 Y22.285 E1.75652
G1 X19.383 Y21.412 E1.86651
G1 X21.146 Y19.863 E1.97649
G1 X22.292 Y17.814 E2.08648
G1 X22.689 Y15.5 E2.19646
G1 X22.689 Y5.5 E2.66495
G1 X22.535 Y4.047 E2.73341
G1 X21.662 Y1.867 E2.8434
G1 X20.113 Y0.104 E2.95338
G1 X18.064 Y-1.042 E3.06337
G1 X15.75 Y-1.439 E3.17335
G1 X5.75 Y-1.439 E3.64184
G1 X4.297 Y-1.285 E3.7103
G1 X2.117 Y-0.412 E3.82029
G1 X0.763 Y0.778 E3.90475
G1 X0.993 Y1.053 F7800
G1 F1341
G1 X0.726 Y1.276 E3.92106
G1 X-0.416 Y3.252 E4.028
G1 X-0.813 Y5.5 E4.13494
G1 X-0.813 Y15.5 E4.60344
G1 X0.061 Y18.773 E4.76216
G1 X1.526 Y20.524 E4.8691
G1 X3.502 Y21.666 E4.97605
G1 X5.75 Y22.063 E5.08299
G1 X15.75 Y22.063 E5.55148
G1 X19.023 Y21.189 E5.7102
G1 X20.774 Y19.724 E5.81715
G1 X21.916 Y17.748 E5.92409
G1 X22.313 Y15.5 E6.03103
G1 X22.313 Y5.5 E6.49953
G1 X21.439 Y2.227 E6.65825
G1 X19.974 Y0.476 E6.76519
G1 X17.998 Y-0.666 E6.87213
G1 X15.75 Y-1.063 E6.97908
G1 X5.75 Y-1.063 E7.44757
G1 X2.477 Y-0.189 E7.60629
G1 X1.039 Y1.014 E7.69412
G1 X1.259 Y1.292 F7800
M73 P3 R15
G1 F1341
G1 X1.098 Y1.419 E7.70375
G1 X-0.041 Y3.32 E7.80756
G1 X-0.438 Y5.5 E7.91138
G1 X-0.438 Y15.5 E8.37987
G1 X0.292 Y18.416 E8.52068
G1 X1.669 Y20.152 E8.6245
G1 X3.57 Y21.291 E8.72831
G1 X5.75 Y21.688 E8.83212
G1 X15.75 Y21.688 E9.30062
G1 X18.666 Y20.958 E9.44143
G1 X20.402 Y19.581 E9.54524
G1 X21.541 Y17.68 E9.64906
G1 X21.938 Y15.5 E9.75287
G1 X21.938 Y5.5 E10.22136
G1 X21.208 Y2.584 E10.36218
G1 X19.831 Y0.848 E10.46599
G1 X17.93 Y-0.291 E10.56981
G1 X15.75 Y-0.688 E10.67362
G1 X5.75 Y-0.688 E11.14211
G1 X2.834 Y0.042 E11.28293
G1 X1.306 Y1.254 E11.37429
G92 E0
G1 E-0.5 F2400
; printing object cube id:0 copy 0
G1 X7.131 Y6.881 F7800
G1 E0 F2400
;TYPE:Internal perimeter
;WIDTH:0.604
G1 F1341
G1 X14.369 Y6.881 E0.48712
G1 X14.369 Y14.119 E0.97423
G1 X7.131 Y14.119 E1.46135
G1 X7.131 Y6.941 E1.94443
G1 X6.592 Y6.342 F7800
G1 F1341
G1 X14.908 Y6.342 E2.50418
G1 X14.908 Y14.658 E3.06394
G1 X6.592 Y14.658 E3.62369
G1 X6.592 Y6.402 E4.17941
G1 X6.052 Y5.802 F7800
;TYPE:External perimeter
G1 F1341
G1 X15.448 Y5.802 E4.8118
G1 X15.448 Y15.198 E5.44419
G1 X6.052 Y15.198 E6.07658
G1 X6.052 Y5.862 E6.70493
;WIPE_START
G1 X6.398 Y6.002 F7800
;WIPE_END
G92 E0
G1 E-0.5 F2400
G1 X14.207 Y8.134 F7800
G1 E0 F2400
;TYPE:Solid infill
;WIDTH:0.594852
G1 F1200
G1 X13.348 Y7.275 E0.0805
G1 X12.585 Y7.275 E0.13109
G1 X13.975 Y8.665 E0.26138
G1 X13.975 Y9.428 E0.31196
G1 X11.822 Y7.275 E0.51379
G1 X11.059 Y7.275 E0.56437
G1 X13.975 Y10.191 E0.83773
G1 X13.975 Y10.954 E0.88832
G1 X10.296 Y7.275 E1.23322
G1 X9.532 Y7.275 E1.2838
M73 P4 R15
G1 X13.975 Y11.718 E1.70024
G1 X13.975 Y12.481 E1.75082
G1 X8.769 Y7.275 E2.2388
G1 X8.006 Y7.275 E2.28938
G1 X13.975 Y13.244 E2.84889
G1 X13.975 Y13.725 E2.88078
G1 X13.693 Y13.725 E2.89948
G1 X7.525 Y7.557 E3.47764
G1 X7.525 Y8.32 E3.52822
G1 X12.93 Y13.725 E4.03484
G1 X12.166 Y13.725 E4.08543
G1 X7.525 Y9.084 E4.52051
G1 X7.525 Y9.847 E4.5711
M73 P4 R14
G1 X11.403 Y13.725 E4.93464
G1 X10.64 Y13.725 E4.98523
G1 X7.525 Y10.61 E5.27724
G1 X7.525 Y11.373 E5.32782
G1 X9.877 Y13.725 E5.54829
G1 X9.114 Y13.725 E5.59888
G1 X7.525 Y12.136 E5.74781
G1 X7.525 Y12.899 E5.7984
G1 X8.351 Y13.725 E5.8758
G1 X7.588 Y13.725 E5.92638
G1 X7.293 Y13.43 E5.95399
M106 S84.15
;LAYER_CHANGE
;Z:0.5
;HEIGHT:0.2
; stop printing object cube id:0 copy 0
G1 Z0.5 F7800
M104 S210 ; set temperature
; printing object cube id:0 copy 0
G1 X6.78 Y14.47
;TYPE:Internal perimeter
;WIDTH:0.464
G1 F900
G1 X6.78 Y6.53 E6.23199
G1 X14.72 Y6.53 E6.50998
G1 X14.72 Y14.47 E6.78797
G1 X6.84 Y14.47 E7.06386
M106 S84.15
G1 X6.359 Y14.891 F7800
G1 F900
G1 X6.359 Y6.109 E7.37134
G1 X15.141 Y6.109 E7.67882
G1 X15.141 Y14.891 E7.98629
G1 X6.419 Y14.891 E8.29167
M106 S84.15
G1 X5.96 Y15.29 F7800
;TYPE:External perimeter
;WIDTH:0.42
G1 F900
M106 S255
G1 X5.96 Y5.71 E8.59205
G1 X15.54 Y5.71 E8.89242
G1 X15.54 Y15.29 E9.19279
M73 P5 R14
G1 X6.02 Y15.29 E9.49129
M106 S84.15
;WIPE_START
G1 X6.16 Y14.944 F7800
;WIPE_END
G1 X6.906 Y7.483
;TYPE:Solid infill
;WIDTH:0.465173
G1 F859
G1 X7.552 Y6.838 E9.52333
G1 X8.147 Y6.838 E9.54423
G1 X7.088 Y7.897 E9.59685
G1 X7.088 Y8.493 E9.61775
G1 X8.743 Y6.838 E9.69993
G1 X9.338 Y6.838 E9.72083
G1 X7.088 Y9.088 E9.83257
G1 X7.088 Y9.684 E9.85347
G1 X9.934 Y6.838 E9.99477
G1 X10.529 Y6.838 E10.01567
G1 X7.088 Y10.279 E10.18653
G1 X7.088 Y10.875 E10.20743
G1 X11.125 Y6.838 E10.40785
G1 X11.72 Y6.838 E10.42876
G1 X7.088 Y11.47 E10.65874
G1 X7.088 Y12.066 E10.67964
G1 X12.316 Y6.838 E10.93918
G1 X12.911 Y6.838 E10.96008
G1 X7.088 Y12.661 E11.24919
G1 X7.088 Y13.257 E11.27009
G1 X13.507 Y6.838 E11.58875
G1 X14.102 Y6.838 E11.60966
G1 X7.088 Y13.852 E11.95788
G1 X7.088 Y14.162 E11.96877
G1 X7.373 Y14.162 E11.97878
G1 X14.412 Y7.123 E12.32823
G1 X14.412 Y7.718 E12.34914
G1 X7.968 Y14.162 E12.66902
G1 X8.564 Y14.162 E12.68993
G1 X14.412 Y8.314 E12.98025
G1 X14.412 Y8.909 E13.00116
G1 X9.159 Y14.162 E13.26192
G1 X9.755 Y14.162 E13.28282
G1 X14.412 Y9.505 E13.51403
G1 X14.412 Y10.1 E13.53493
M73 P6 R14
G1 X10.35 Y14.162 E13.73657
G1 X10.946 Y14.162 E13.75748
G1 X14.412 Y10.696 E13.92956
G1 X14.412 Y11.291 E13.95046
G1 X11.541 Y14.162 E14.09298
G1 X12.137 Y14.162 E14.11389
G1 X14.412 Y11.887 E14.22685
G1 X14.412 Y12.482 E14.24775
G1 X12.732 Y14.162 E14.33115
G1 X13.328 Y14.162 E14.35205
G1 X14.412 Y13.078 E14.40589
G1 X14.412 Y13.673 E14.4268
G1 X13.742 Y14.344 E14.46006
M106 S84.15
M106 S170.85
;LAYER_CHANGE
;Z:0.7
;HEIGHT:0.2
; stop printing object cube id:0 copy 0
G1 Z0.7 F7800
; printing object cube id:0 copy 0
G1 X14.72 Y14.47
;TYPE:Internal perimeter
;WIDTH:0.464
G1 F900
G1 X6.78 Y14.47 E14.73805
G1 X6.78 Y6.53 E15.01605
G1 X14.72 Y6.53 E15.29404
G1 X14.72 Y14.41 E15.56993
M106 S170.85
G1 X15.141 Y14.891 F7800
G1 F900
G1 X6.359 Y14.891 E15.87741
G1 X6.359 Y6.109 E16.18488
G1 X15.141 Y6.109 E16.49236
G1 X15.141 Y14.831 E16.79774
M106 S170.85
G1 X15.54 Y15.29 F7800
;TYPE:External perimeter
;WIDTH:0.42
G1 F900
M106 S255
G1 X5.96 Y15.29 E17.09811
G1 X5.96 Y5.71 E17.39849
G1 X15.54 Y5.71 E17.69886
G1 X15.54 Y15.23 E17.99735
M106 S170.85
;WIPE_START
G1 X15.194 Y15.09 F7800
;WIPE_END
G1 X7.733 Y14.344
;TYPE:Solid infill
;WIDTH:0.465173
G1 F742
M73 P7 R14
G1 X7.088 Y13.698 E18.0294
G1 X7.088 Y13.103 E18.0503
G1 X8.147 Y14.162 E18.10292
G1 X8.743 Y14.162 E18.12382
G1 X7.088 Y12.507 E18.206
G1 X7.088 Y11.912 E18.2269
G1 X9.338 Y14.162 E18.33864
G1 X9.934 Y14.162 E18.35954
G1 X7.088 Y11.316 E18.50084
G1 X7.088 Y10.721 E18.52174
G1 X10.529 Y14.162 E18.6926
G1 X11.125 Y14.162 E18.7135
G1 X7.088 Y10.125 E18.91392
G1 X7.088 Y9.53 E18.93482
G1 X11.72 Y14.162 E19.16481
G1 X12.316 Y14.162 E19.18571
G1 X7.088 Y8.934 E19.44525
G1 X7.088 Y8.339 E19.46615
G1 X12.911 Y14.162 E19.75526
G1 X13.507 Y14.162 E19.77616
G1 X7.088 Y7.743 E20.09482
G1 X7.088 Y7.148 E20.11573
G1 X14.102 Y14.162 E20.46395
G1 X14.412 Y14.162 E20.47483
G1 X14.412 Y13.877 E20.48485
G1 X7.373 Y6.838 E20.8343
G1 X7.968 Y6.838 E20.8552
G1 X14.412 Y13.282 E21.17509
G1 X14.412 Y12.686 E21.19599
G1 X8.564 Y6.838 E21.48632
G1 X9.159 Y6.838 E21.50722
G1 X14.412 Y12.091 E21.76799
G1 X14.412 Y11.495 E21.78889
G1 X9.755 Y6.838 E22.0201
G1 X10.35 Y6.838 E22.041
G1 X14.412 Y10.9 E22.24264
M73 P8 R14
G1 X14.412 Y10.304 E22.26355
G1 X10.946 Y6.838 E22.43563
G1 X11.541 Y6.838 E22.45653
G1 X14.412 Y9.709 E22.59905
G1 X14.412 Y9.113 E22.61996
G1 X12.137 Y6.838 E22.73292
G1 X12.732 Y6.838 E22.75382
G1 X14.412 Y8.518 E22.83722
G1 X14.412 Y7.922 E22.85812
G1 X13.328 Y6.838 E22.91196
G1 X13.923 Y6.838 E22.93286
G1 X14.594 Y7.508 E22.96613
M106 S170.85
M106 S255
;LAYER_CHANGE
;Z:0.9
;HEIGHT:0.2
; stop printing object cube id:0 copy 0
G1 Z0.9 F7800
; printing object cube id:0 copy 0
G1 X14.72 Y6.53
;TYPE:Internal perimeter
;WIDTH:0.464
G1 F900
G1 X14.72 Y14.47 E23.24412
G1 X6.78 Y14.47 E23.52211
G1 X6.78 Y6.53 E23.80011
G1 X14.66 Y6.53 E24.076
G1 X15.141 Y6.109 F7800
G1 F900
G1 X15.141 Y14.891 E24.38347
G1 X6.359 Y14.891 E24.69095
G1 X6.359 Y6.109 E24.99843
G1 X15.081 Y6.109 E25.30381
G1 X15.54 Y5.71 F7800
;TYPE:External perimeter
;WIDTH:0.42
G1 F900
G1 X15.54 Y15.29 E25.60418
G1 X5.96 Y15.29 E25.90456
G1 X5.96 Y5.71 E26.20493
G1 X15.48 Y5.71 E26.50342
;WIPE_START
G1 X15.34 Y6.056 F7800
;WIPE_END
G1 X13.742 Y14.344
;TYPE:Solid infill
;WIDTH:0.465175
G1 F742
M73 P9 R14
G1 X14.412 Y13.673 E26.53669
G1 X14.412 Y13.078 E26.55759
G1 X13.328 Y14.162 E26.61143
G1 X12.732 Y14.162 E26.63233
G1 X14.412 Y12.482 E26.71573
G1 X14.412 Y11.887 E26.73664
G1 X12.137 Y14.162 E26.8496
G1 X11.541 Y14.162 E26.8705
G1 X14.412 Y11.291 E27.01302
G1 X14.412 Y10.696 E27.03393
G1 X10.946 Y14.162 E27.20601
G1 X10.35 Y14.162 E27.22691
G1 X14.412 Y10.1 E27.42856
G1 X14.412 Y9.505 E27.44946
G1 X9.755 Y14.162 E27.68067
G1 X9.159 Y14.162 E27.70157
G1 X14.412 Y8.909 E27.96234
G1 X14.412 Y8.314 E27.98324
G1 X8.564 Y14.162 E28.27357
G1 X7.968 Y14.162 E28.29447
G1 X14.412 Y7.718 E28.61436
G1 X14.412 Y7.123 E28.63526
G1 X7.373 Y14.162 E28.98471
G1 X7.088 Y14.162 E28.99473
G1 X7.088 Y13.852 E29.00561
G1 X14.102 Y6.838 E29.35384
G1 X13.507 Y6.838 E29.37474
G1 X7.088 Y13.257 E29.69341
G1 X7.088 Y12.661 E29.71431
G1 X12.911 Y6.838 E30.00341
G1 X12.316 Y6.838 E30.02431
G1 X7.088 Y12.066 E30.28386
G1 X7.088 Y11.47 E30.30476
G1 X11.72 Y6.838 E30.53474
G1 X11.125 Y6.838 E30.55564
G1 X7.088 Y10.875 E30.75606
G1 X7.088 Y10.279 E30.77696
M73 P10 R14
G1 X10.529 Y6.838 E30.94782
G1 X9.934 Y6.838 E30.96872
G1 X7.088 Y9.684 E31.11002
G1 X7.088 Y9.088 E31.13092
G1 X9.338 Y6.838 E31.24266
G1 X8.743 Y6.838 E31.26356
G1 X7.088 Y8.493 E31.34574
G1 X7.088 Y7.897 E31.36664
G1 X8.147 Y6.838 E31.41925
G1 X7.552 Y6.838 E31.44016
G1 X6.906 Y7.483 E31.4722
;LAYER_CHANGE
;Z:1.1
;HEIGHT:0.2
; stop printing object cube id:0 copy 0
G1 Z1.1 F7800
; printing object cube id:0 copy 0
G1 X6.78 Y6.53
;TYPE:Internal perimeter
;WIDTH:0.464
G1 F900
G1 X14.72 Y6.53 E31.75019
G1 X14.72 Y14.47 E32.02818
G1 X6.78 Y14.47 E32.30617
G1 X6.78 Y6.59 E32.58206
G1 X6.359 Y6.109 F7800
G1 F900
G1 X15.141 Y6.109 E32.88954
G1 X15.141 Y14.891 E33.19702
G1 X6.359 Y14.891 E33.5045
G1 X6.359 Y6.169 E33.80988
G1 X5.96 Y5.71 F7800
;TYPE:External perimeter
;WIDTH:0.42
M73 P10 R13
G1 F900
G1 X15.54 Y5.71 E34.11025
G1 X15.54 Y15.29 E34.41062
G1 X5.96 Y15.29 E34.711
G1 X5.96 Y5.77 E35.00949
;WIPE_START
G1 X6.306 Y5.91 F7800
;WIPE_END
G1 X14.594 Y7.508
;TYPE:Solid infill
;WIDTH:0.465175
G1 F742
G1 X13.923 Y6.838 E35.04276
G1 X13.328 Y6.838 E35.06366
M73 P11 R13
G1 X14.412 Y7.922 E35.1175
G1 X14.412 Y8.518 E35.1384
G1 X12.732 Y6.838 E35.2218
G1 X12.137 Y6.838 E35.24271
G1 X14.412 Y9.113 E35.35567
G1 X14.412 Y9.709 E35.37657
G1 X11.541 Y6.838 E35.51909
G1 X10.946 Y6.838 E35.54
G1 X14.412 Y10.304 E35.71208
G1 X14.412 Y10.9 E35.73298
G1 X10.35 Y6.838 E35.93463
G1 X9.755 Y6.838 E35.95553
G1 X14.412 Y11.495 E36.18674
G1 X14.412 Y12.091 E36.20764
G1 X9.159 Y6.838 E36.4684
G1 X8.564 Y6.838 E36.48931
G1 X14.412 Y12.686 E36.77964
G1 X14.412 Y13.282 E36.80054
G1 X7.968 Y6.838 E37.12043
G1 X7.373 Y6.838 E37.14133
G1 X14.412 Y13.877 E37.49078
G1 X14.412 Y14.162 E37.5008
G1 X14.102 Y14.162 E37.51168
G1 X7.088 Y7.148 E37.85991
G1 X7.088 Y7.743 E37.88081
G1 X13.507 Y14.162 E38.19947
G1 X12.911 Y14.162 E38.22038
G1 X7.088 Y8.339 E38.50948
G1 X7.088 Y8.934 E38.53038
G1 X12.316 Y14.162 E38.78992
G1 X11.72 Y14.162 E38.81083
G1 X7.088 Y9.53 E39.04081
G1 X7.088 Y10.125 E39.06171
G1 X11.125 Y14.162 E39.26213
G1 X10.529 Y14.162 E39.28303
M73 P12 R13
G1 X7.088 Y10.721 E39.45389
G1 X7.088 Y11.316 E39.47479
G1 X9.934 Y14.162 E39.61609
G1 X9.338 Y14.162 E39.63699
G1 X7.088 Y11.912 E39.74873
G1 X7.088 Y12.507 E39.76963
G1 X8.743 Y14.162 E39.85181
G1 X8.147 Y14.162 E39.87271
G1 X7.088 Y13.103 E39.92532
G1 X7.088 Y13.698 E39.94623
G1 X7.733 Y14.344 E39.97827
;LAYER_CHANGE
;Z:1.3
;HEIGHT:0.2
; stop printing object cube id:0 copy 0
G1 Z1.3 F7800
; printing object cube id:0 copy 0
G1 X6.78 Y14.47
;TYPE:Internal perimeter
;WIDTH:0.464
G1 F900
G1 X6.78 Y6.53 E40.25626
G1 X14.72 Y6.53 E40.53425
G1 X14.72 Y14.47 E40.81224
G1 X6.84 Y14.47 E41.08813
G1 X6.359 Y14.891 F7800
G1 F900
G1 X6.359 Y6.109 E41.39561
G1 X15.141 Y6.109 E41.70309
G1 X15.141 Y14.891 E42.01057
G1 X6.419 Y14.891 E42.31594
G1 X5.96 Y15.29 F7800
;TYPE:External perimeter
;WIDTH:0.42
G1 F900
G1 X5.96 Y5.71 E42.61632
G1 X15.54 Y5.71 E42.91669
G1 X15.54 Y15.29 E43.21707
G1 X6.02 Y15.29 E43.51556
;WIPE_START
G1 X6.16 Y14.944 F7800
;WIPE_END
G1 X6.906 Y7.483
;TYPE:Solid infill
;WIDTH:0.465175
G1 F742
G1 X7.552 Y6.838 E43.5476
G1 X8.147 Y6.838 E43.5685
M73 P13 R13
G1 X7.088 Y7.897 E43.62112
G1 X7.088 Y8.493 E43.64202
G1 X8.743 Y6.838 E43.72419
G1 X9.338 Y6.838 E43.7451
G1 X7.088 Y9.088 E43.85683
G1 X7.088 Y9.684 E43.87774
G1 X9.934 Y6.838 E44.01903
G1 X10.529 Y6.838 E44.03994
G1 X7.088 Y10.279 E44.21079
G1 X7.088 Y10.875 E44.2317
G1 X11.125 Y6.838 E44.43212
G1 X11.72 Y6.838 E44.45302
G1 X7.088 Y11.47 E44.683
G1 X7.088 Y12.066 E44.7039
G1 X12.316 Y6.838 E44.96344
G1 X12.911 Y6.838 E44.98435
G1 X7.088 Y12.661 E45.27345
G1 X7.088 Y13.257 E45.29435
G1 X13.507 Y6.838 E45.61301
G1 X14.102 Y6.838 E45.63392
G1 X7.088 Y13.852 E45.98214
G1 X7.088 Y14.162 E45.99303
G1 X7.373 Y14.162 E46.00304
G1 X14.412 Y7.123 E46.35249
G1 X14.412 Y7.718 E46.3734
G1 X7.968 Y14.162 E46.69329
G1 X8.564 Y14.162 E46.71419
G1 X14.412 Y8.314 E47.00452
G1 X14.412 Y8.909 E47.02542
G1 X9.159 Y14.162 E47.28619
G1 X9.755 Y14.162 E47.30709
G1 X14.412 Y9.505 E47.5383
G1 X14.412 Y10.1 E47.5592
G1 X10.35 Y14.162 E47.76084
G1 X10.946 Y14.162 E47.78175
M73 P14 R13
G1 X14.412 Y10.696 E47.95383
G1 X14.412 Y11.291 E47.97473
G1 X11.541 Y14.162 E48.11725
G1 X12.137 Y14.162 E48.13816
G1 X14.412 Y11.887 E48.25112
G1 X14.412 Y12.482 E48.27202
G1 X12.732 Y14.162 E48.35542
G1 X13.328 Y14.162 E48.37633
G1 X14.412 Y13.078 E48.43016
G1 X14.412 Y13.673 E48.45107
G1 X13.742 Y14.344 E48.48433
;LAYER_CHANGE
;Z:1.5
;HEIGHT:0.2
; stop printing object cube id:0 copy 0
G1 Z1.5 F7800
; printing object cube id:0 copy 0
G1 X14.72 Y14.47
;TYPE:Internal perimeter
;WIDTH:0.464
G1 F900
G1 X6.78 Y14.47 E48.76233
G1 X6.78 Y6.53 E49.04032
G1 X14.72 Y6.53 E49.31831
G1 X14.72 Y14.41 E49.5942
G1 X15.141 Y14.891 F7800
G1 F900
G1 X6.359 Y14.891 E49.90168
G1 X6.359 Y6.109 E50.20916
G1 X15.141 Y6.109 E50.51663
G1 X15.141 Y14.831 E50.82201
G1 X15.54 Y15.29 F7800
;TYPE:External perimeter
;WIDTH:0.42
G1 F900
G1 X5.96 Y15.29 E51.12239
G1 X5.96 Y5.71 E51.42276
G1 X15.54 Y5.71 E51.72313
G1 X15.54 Y15.23 E52.02163
;WIPE_START
G1 X15.194 Y15.09 F7800
;WIPE_END
G1 X7.733 Y14.344
;TYPE:Solid infill
;WIDTH:0.465175
G1 F742
G1 X7.088 Y13.698 E52.05367
G1 X7.088 Y13.103 E52.07457
G1 X8.147 Y14.162 E52.12718
G1 X8.743 Y14.162 E52.14809
M73 P15 R13
G1 X7.088 Y12.507 E52.23026
G1 X7.088 Y11.912 E52.25117
